!!!COM:	Busnoys, Antoine
!!!CDT:	~1430///-1492/11/06
!!!OPR:	Missa L'homme arm&eacute;
!!!ONM:	5
!!!OTL:	Agnus Dei
!!!AGN:	Mass; Agnus Dei
!!!SCT:	Bus1001e
!!!SCA:	Bus1001e
!!!voices:	4
**kern	**kern	**kern	**kern
*staff4	*staff3	*staff2	*staff1
*Ivox	*Ivox	*Ivox	*Ivox
*I"Tenor	*I"Contratenor	*I"Contratenor1	*I"Superius
*I'T	*I'Ct	*I'Ct1	*I'S
*>[A,B,C]	*>[A,B,C]	*>[A,B,C]	*>[A,B,C]
*>A	*>A	*>A	*>A
*clefF4	*clefGv2	*clefGv2	*clefG2
*k[b-]	*k[b-]	*k[b-]	*k[b-]
*M3/1	*M3/1	*M3/1	*M3/1
*met(O.)	*met(O)	*met(O)	*met(O)
!!section: Agnus Dei I
!!!OMD: Agnus Dei I
=1-	=1-	=1-	=1-
!LO:TX:Z=8:t=Ubi thesis assint ceptra, tibi arsis et econtra C.f. sung in inversion	!	!	!
*rscale:1/2	*	*	*
0.r	0.r	0G	[0.g
.	.	1G	.
=2-	=2	=2	=2
0.r	0.r	0c	1g]
.	.	.	1.a
.	.	1c	.
.	.	.	2g
=3-	=3	=3	=3
0.r	0.r	1B-	1g
.	.	1.A	1.cc
.	.	2G	2b-
=4	=4	=4	=4
0.r	0.r	2.G	2.b-
.	.	4F	4a
.	.	2G	2b-
.	.	1A	2cc
.	.	.	1a
.	.	2F	.
=5-	=5	=5	=5
0.r	0.r	2.G	2r
.	.	.	1d
.	.	4A	.
.	.	2B-	.
.	.	2c	1g
.	.	1A	.
.	.	.	2f
=6-	=6	=6	=6
0.r	0.r	2r	2g
.	.	1G	2d
.	.	.	4e
.	.	.	4d
.	.	2E	4c
.	.	.	4B-
.	.	1F	2.A
.	.	.	4G
=7	=7	=7	=7
0.r	0.r	2G	1G
.	.	2B-	.
.	.	2c	2r
.	.	1d	2G
.	.	.	2B-
.	.	2e	2c
=8-	=8	=8	=8
0.r	0.r	2d	1d
.	.	2f	.
.	.	2g	2e
.	.	2.a	2d
.	.	.	2f
.	.	4g	.
.	.	2e	2g
=9-	=9	=9	=9
0.r	0.r	2f	2a
.	.	2.d	1b-
.	.	4c	.
.	.	2B-	1g
.	.	1A	.
.	.	.	2f#i
=10	=10	=10	=10
0.r	0.r	2r	2g
.	.	2G	1b-
.	.	2.d	.
.	.	.	2cc
.	.	4e	.
.	.	2.f	2a
.	.	.	[2cc
.	.	4e	.
=11-	=11	=11	=11
0.r	0.r	2c	4cc]
.	.	.	4b-
.	.	2B-	2g
.	.	2.d	2f
.	.	.	2.a
.	.	4c	.
.	.	2A	.
.	.	.	4g
.	.	2G	2e
=12-	=12	=12	=12
0.r	0.r	2.B-	2d
.	.	.	2.f
.	.	4A	.
.	.	2F	.
.	.	.	4e
.	.	2E	2c
.	.	2.G	2B-
.	.	.	[2d
.	.	4F	.
=13	=13	=13	=13
0.r	1r	2D	4d]
.	.	.	4c
.	.	2F	2A
.	1r	2G	2G
.	.	2B-	1g
.	1c	1A	.
.	.	.	2f#i
=14-	=14	=14	=14
0G	2B-	1G	0.g
.	1d	.	.
.	.	2r	.
.	2c	1G	.
1G	2B-	.	.
.	4A	2B-	.
.	4G	.	.
=15-	=15	=15	=15
0D	2F	2A	1r
.	2B-	2.d	.
.	2A	.	1r
.	.	4e	.
.	2.d	2.f	.
1D	.	.	1f
.	4c	4e	.
.	2A	4d	.
.	.	4c	.
=16	=16	=16	=16
1E-i	1G	2B-	1g
.	.	2.c	.
0F	1r	.	0a
.	.	4B-	.
.	.	2.d	.
.	1D	.	.
.	.	4c	.
.	.	2A	.
=17-	=17	=17	=17
1G	1d	1.G	1.b-
1r	2e	.	.
.	2.f	2.d	2.a
1r	.	.	.
.	4e	4e	4g
.	2d	2f	2f
=18-	=18	=18	=18
1C	2c	1g	2e
.	2.e-	.	2.g
1C	.	1c	.
.	4d	.	4f
.	1c	.	2e
1G	.	2r	1d
.	2Bni	2G	.
=19	=19	=19	=19
1r	0.c	2.A	2c
.	.	.	1e
.	.	4G	.
1C	.	2E	.
.	.	2A	2f
1C	.	2G	2g
.	.	[2c	2a
=20-	=20	=20	=20
1C	1r	4c]	2g
.	.	4d	.
.	.	2e	2cc
0D	1r	2d	2b-
.	.	4c	4a
.	.	4B-	4g
.	1d	1A	2.f#i
.	.	.	4e
=21-	=21	=21	=21
1E-i	1B-	1G	1g
0F	1.A	0D	1r
.	.	.	1a
.	2G	.	.
=22	=22	=22	=22
0.G	1G	1d	1b-
.	2r	2e	2g
.	1G	2d	2.b-
.	.	2.g	.
.	.	.	4a
.	2A	.	2g
.	.	4f	.
=23-	=23	=23	=23
0.r	1B-	1d	2f
.	.	.	2d
.	1E-	1G	2e-
.	.	.	1g
.	1D	1A	.
.	.	.	2f#i
=24-	=24	=24	=24
0.r	2.G	2G	2.g
.	.	2.g	.
.	4F	.	4a
.	2E-i	.	2b-
.	.	4f	.
.	2C	2e	1cc
.	1G	1d	.
.	.	.	2bni
=25	=25	=25	=25
1C	0.r	2r	1.cc
.	.	2.c	.
1C	.	.	.
.	.	4d	.
.	.	2.e-	4b-
.	.	.	4a
1C	.	.	2g
.	.	4f	.
.	.	4e-i	4f
.	.	8dL	4e-i
.	.	8cJ	.
=26-	=26	=26	=26
0.G	0.r	2B-	2d
.	.	2.e-i	1g
.	.	4d	.
.	.	2.c	2e-i
.	.	.	1d
.	.	4Bni	.
.	.	4Bni	.
.	.	4A	.
=27-	=27	=27	=27
0.r	2C	1c	1c
.	2E	.	.
.	2D	2B-	1r
.	1G	2G	.
.	.	1A	1r
.	2F#i	.	.
=28	=28	=28	=28
0.r	2G	1G	1g
.	2B-	.	.
.	2A	1r	2f
.	1d	.	2d
.	.	1r	1e
.	2c#i	.	.
=29-	=29	=29	=29
0.r	1d	1B-	1d
.	2c	2c	2e
.	1B-	1d	2f
.	.	.	2g
.	2A	2c	2a
=30-	=30	=30	=30
0.r	2G	2B-	2b-
.	2F	2A	2.cc
.	2G	1G	.
.	.	.	4b-
.	2B-	.	4a
.	.	.	4g
.	1A	2r	2.f#i
.	.	2c	.
.	.	.	4e
=31	=31	=31	=31
0GG	1G	2B-	1.g
.	.	1d	.
.	1r	.	.
.	.	4c	2e
.	.	4B-	.
1GG	1G	4c	1d
.	.	4B-	.
.	.	4A	.
.	.	4G	.
=32-	=32	=32	=32
0AA	2.c	2F	1r
.	.	2.A	.
.	4d	.	.
.	2e	.	1r
.	.	4G	.
.	2.f	4F#i	.
.	.	4E	.
1AA	.	2.F#i	1a
.	4e	.	.
.	4d	.	.
.	4c	4E	.
=33-	=33	=33	=33
0GG	2B-	1.G	1b-
.	2.d	.	.
.	.	.	2g
.	4c	.	.
.	2d	2F	2.g
1GG	4Bni	1D	.
.	2Bni	.	4f
.	.	.	2d
.	4A	.	.
=34	=34	=34	=34
0.Cl	2c	2r	1.e
.	4B-	2C	.
.	4A	.	.
.	1G	2.E	.
.	.	.	2c
.	.	4F	.
.	2r	2G	2.e
.	2C	2A	.
.	.	.	4f
=35-	=35	=35	=35
0.r	2E	2G	2g
.	1F	1c	2.a
.	.	.	4g
.	2G	2B-	2g
.	2D	2A	2f
.	[2G	2G	2g
=36-	=36	=36	=36
0.r	2G]	1d	2b-
.	1F	.	1a
.	.	2c	.
.	2G	2B-	1g
.	1D	1A	.
.	.	.	2f#i
=37	=37	=37	=37
0.r	0.dl	0.Gl	0.gl
!!LO:LB:i:g=z
*rscale:1	*	*	*
=38||	=38||	=38||	=38||
*>B	*>B	*>B	*>B
*clefF4	*clefGv2	*clefGv2	*clefG2
*k[b-]	*k[b-]	*k[b-]	*k[b-]
*M3/1	*M3/1	*M3/1	*M3/1
*met(O)	*met(O)	*met(O)	*met(O)
!!section: Agnus Dei II
!!!OMD: Agnus Dei II
0.r	0.r	2.G	0.r
.	.	4A	.
.	.	2B-	.
.	.	1c	.
.	.	2A	.
=39	=39	=39	=39
0.r	0.r	1G	2.g
.	.	.	4a
.	.	1r	2b-
.	.	.	1cc
.	.	1f	.
.	.	.	2a
=40	=40	=40	=40
0.r	0.r	2.g	1g
.	.	4e	.
.	.	2f	1r
.	.	1g	.
.	.	.	1e
.	.	2c	.
=41	=41	=41	=41
0.r	0.r	2d	2f
.	.	2e	1g
.	.	2.c	.
.	.	.	2c
.	.	4A	.
.	.	2B-	2d
.	.	[2c	2e
=42	=42	=42	=42
0.r	0.r	2c]	2.c
.	.	2e	.
.	.	.	4A
.	.	2d	2B-
.	.	2c	1c
.	.	1g	.
.	.	.	2e
=43	=43	=43	=43
0.r	0.r	2f	2d
.	.	2.e	2c
.	.	.	1g
.	.	4c	.
.	.	2e	.
.	.	2d	2f
.	.	2c	[2e
=44	=44	=44	=44
0.r	0.r	1g	4e]
.	.	.	4c
.	.	.	2e
.	.	2f	2d
.	.	2g	2c
.	.	2.e	1g
.	.	4c	.
=45	=45	=45	=45
0.r	0.r	2d	2f
.	.	1e	2.g
.	.	.	4f
.	.	1c	2e
.	.	.	1d
.	.	2Bni	.
=46	=46	=46	=46
0.r	2.C	1c	0.c
.	4D	.	.
.	2E	1r	.
.	1F	.	.
.	.	1r	.
.	2G	.	.
=47	=47	=47	=47
0.r	2E	2.c	0.r
.	2.A	.	.
.	.	4d	.
.	.	2e	.
.	4G	.	.
.	2A	1f	.
.	1B-	.	.
.	.	2g	.
=48	=48	=48	=48
0.r	2c	2e	0.r
.	1d	1d	.
.	2B-	1g	.
.	1A	.	.
.	.	2f#i	.
=49	=49	=49	=49
0.r	2G	1g	0.r
.	2E	.	.
.	2F	2a	.
.	1G	2g	.
.	.	2e	.
.	2A	2f	.
=50	=50	=50	=50
0.r	2G	4e	0.r
.	.	4d	.
.	2E	2c	.
.	2F	2d	.
.	4E	2f	.
.	4D	.	.
.	2C	2e	.
.	2D	2f	.
=51	=51	=51	=51
0.r	2F	2d	0.r
.	2E	1c	.
.	2F	.	.
.	2D	2f	.
.	2C	2g	.
.	[2G	2e	.
=52	=52	=52	=52
0.r	4G]	2d	0.r
.	4F	.	.
.	2.E	2.e	.
.	4C	4d	.
.	2E	2c	.
.	2D	2.Bni	.
.	[2G	.	.
.	.	4c	.
=53	=53	=53	=53
0.r	4G]	2d	0.r
.	4F	.	.
.	2.E	1e	.
.	4C	.	.
.	2E	2c	.
.	1D	2A	.
.	.	2Bni	.
=54	=54	=54	=54
0.r	1C	0c	1r
.	1r	.	1r
.	2C	1r	1c
.	2E	.	.
=55	=55	=55	=55
0.r	2F	0.r	2A
.	1G	.	2G
.	.	.	2B-
.	2E	.	2c
.	2D	.	1d
.	2F	.	.
=56	=56	=56	=56
0.r	2G	0.r	2B-
.	1A	.	2A
.	.	.	2c
.	2F	.	2d
.	2E-	.	1e-
.	2G	.	.
=57	=57	=57	=57
0.r	2A	0.r	2c
.	1B-	.	2B-
.	.	.	2d
.	2G	.	2e
.	2F	.	1f
.	2A	.	.
=58	=58	=58	=58
0.r	2B-	0.r	2d
.	1c	.	2c
.	.	.	2e
.	2A	.	2f
.	2G	.	1g
.	2B-	.	.
=59	=59	=59	=59
0.r	2c	0.r	2e
.	1d	.	2d
.	.	.	2f
.	2B-	.	2g
.	2A	.	2a
.	2G	.	[2b-
=60	=60	=60	=60
0.r	1.d	1r	2b-]
.	.	.	2.a
.	.	1r	.
.	.	.	4g
.	2B-	.	1g
.	1A	1c	.
.	.	.	2f#i
=61	=61	=61	=61
0.r	0.G	2B-	1g
.	.	2.d	.
.	.	.	2r
.	.	4c	.
.	.	4B-	1g
.	.	4A	.
.	.	2B-	.
.	.	4A	2b-
.	.	4G	.
=62	=62	=62	=62
0.r	0.r	2F	2a
.	.	2.c	2g
.	.	.	2a
.	.	4B-	.
.	.	2A	2cc
.	.	2G	2b-
.	.	[2d	4a
.	.	.	4g
=63	=63	=63	=63
0.r	1r	4d]	2f
.	.	4c	.
.	.	2B-	2g
.	1r	2A	2a
.	.	2.G	2.b-
.	2r	.	.
.	.	4A	4a
.	2G	2B-	4g
.	.	.	4f
=64	=64	=64	=64
0.r	2A	2c	2e
.	2F	2d	1d
.	2G	2B-	.
.	2E	2G	1g
.	1D	1A	.
.	.	.	2f#i
=65	=65	=65	=65
0.r	0.dl	0.Gl	0.gl
!!LO:LB:i:g=z
=66||	=66||	=66||	=66||
*>C	*>C	*>C	*>C
*clefF4	*clefGv2	*clefGv2	*clefG2
*k[b-]	*k[b-]	*k[b-]	*k[b-]
*M2/1	*M2/1	*M2/1	*M2/1
*met(C.)	*met(O2)	*met(O2)	*met(O2)
*rscale:1/4	*	*	*
!!section: Agnus Dei III
!!!OMD: Agnus Dei III
!LO:TX:Z=10:t=C.f. sung in inversion	!	!	!
!LO:N:vis=1	!	!	!
[y0GG	1.G	0r	[0g
.	2F	.	.
=67-	=67.	=67.	=67.
0GG]yy	2.E	1.G	1g]
.	4D	.	.
.	1D	.	2f
.	.	2A	2e
=68-	=68.	=68.	=68.
0GG	2r	2.B-	1d
.	1G	.	.
.	.	4c	.
.	.	2B-	1e
.	2B-	4A	.
.	.	4G	.
=69-	=69	=69	=69
!LO:N:vis=1	!	!	!
[y0AA	2A	1F	[1f
.	2F	.	.
.	2.A	2C	3f]
.	.	.	3e
.	.	[2F	.
.	.	.	3d
.	4B-	.	.
=70-	=70.	=70.	=70.
0AA]yy	1c	4F]	2.c
.	.	4A	.
.	.	2.A	.
.	.	.	4B-
.	1A	.	2.c
.	.	4B-	.
.	.	[2c	.
.	.	.	4d
=71-	=71.	=71.	=71.
0AA	2r	4c]	2e
.	.	4B-	.
.	1c	4A	2.f
.	.	4G	.
.	.	2.F#i	.
.	.	.	4e
.	2A	.	4d
.	.	4E	4c
=72	=72	=72	=72
!LO:N:vis=1	!	!	!
[y0GG	2.B-	0G	2B-
.	.	.	2G
.	4c	.	.
.	1d	.	2.B-
.	.	.	4c
=73-	=73.	=73.	=73.
0GG]yy	1.G	1r	2d
.	.	.	1g
.	.	[1g	.
.	2A	.	4f
.	.	.	4e
=74-	=74.	=74.	=74.
0GG	2B-	1g]	2d
.	1c	.	2c
.	.	1g	1d
.	2Bni	.	.
=75-	=75	=75	=75
!LO:N:vis=1.	!	!	!
[y0C	1.c	1.e	1c
.	.	.	1r
.	2B-	2c	.
=76-	=76.	=76.	=76.
0C_yy	1A	2e	1.c
.	.	2f	.
.	1G	1g	.
.	.	.	2B-
=77-	=77.	=77.	=77.
0C]yy	1r	1.c	1A
.	1E	.	1G
.	.	2B-	.
=78	=78	=78	=78
!LO:N:vis=1	!	!	!
0r	2F	1A	1f
.	2D	.	.
.	2E	2G	2g
.	2F	2F	[2a
=79-	=79.	=79.	=79.
0ryy	1G	1B-	2a]
.	.	.	1g
.	1D	1A	.
.	.	.	2f#i
=80-	=80.	=80.	=80.
0GG	0d	0G	0g
=81-	=81	=81	=81
!LO:N:vis=1	!	!	!
[y0FF	0r	[0A	0r
=82-	=82.	=82.	=82.
0FF]yy	0r	0A]	0r
=83-	=83.	=83.	=83.
0GG	0r	0G	0r
=84	=84	=84	=84
0AA	0c	0r	0r
=85-	=85.	=85.	=85.
!LO:N:vis=1	!	!	!
[y0BB-	[0d	0r	0r
=86-	=86.	=86.	=86.
0BB-]yy	0d]	0r	0r
=87-	=87	=87	=87
!LO:N:vis=1.	!	!	!
[y0C	[1c	0r	0g
.	3c]	.	.
.	3B-	.	.
.	3A	.	.
=88-	=88.	=88.	=88.
0C_yy	1G	1.c	1.e
.	1A	.	.
.	.	2d	2f
=89-	=89.	=89.	=89.
0C]yy	1G	1e-	1g
.	2.c	1e-i	1a
.	4B-	.	.
=90	=90	=90	=90
!LO:N:vis=1.	!	!	!
0r	2.G	2d	1.b-
.	.	1d	.
.	4F	.	.
.	1D	.	.
.	.	2c	2a
=91-	=91.	=91.	=91.
0ryy	1E	2B-	2g
.	.	4A	4f
.	.	4G	4g
.	1F	2F	2a
.	.	2A	2cc
=92-	=92.	=92.	=92.
0ryy	1G	2G	2b-
.	.	2B-	1g
.	1D	1A	.
.	.	.	2f#i
=93-	=93	=93	=93
!LO:N:vis=1	!	!	!
[y0G	2r	1G	2g
.	2G	.	4f
.	.	.	4e
.	2B-	2r	4f
.	.	.	4e
.	2c	[2G	4d
.	.	.	4c
=94-	=94.	=94.	=94.
0G]yy	2d	4G]	1B-
.	.	4A	.
.	4c	2.B-	.
.	4d	.	.
.	2e-i	.	2G
.	.	4c	.
.	[2d	[2d	[2B-
=95-	=95.	=95.	=95.
0G	2d]	2d]	2B-]
.	4c	2e-i	2c
.	4B-	.	.
.	4c	2d	2d
.	4B-	.	.
.	4A	4c	2e
.	4G	4B-	.
=96	=96	=96	=96
!LO:N:vis=1	!	!	!
[y0D	2F	2A	0f
.	2.B-	1d	.
.	4c	.	.
.	[2d	4c	.
.	.	4B-	.
=97-	=97.	=97.	=97.
0D]yy	4d]	4c	0r
.	4e	4B-	.
.	2.f	4A	.
.	.	4G	.
.	.	2F	.
.	4e	.	.
.	[2d	[2B-	.
=98-	=98.	=98.	=98.
0D	4d]	4B-]	1d
.	4c	4A	.
.	2B-	1G	.
.	1A	.	1d
.	.	2F#i	.
=99-	=99	=99	=99
0E-i	2r	1G	2.B-
.	2.G	.	.
.	.	.	4c
.	.	2r	2B-
.	4E-i	.	.
.	2G	2B-	4A
.	.	.	4G
=100-	=100.	=100.	=100.
!LO:N:vis=1	!	!	!
[y0F	1D	2.A	2.F
.	.	4B-	4G
.	2r	2c	1A
.	2D	[2d	.
=101-	=101.	=101.	=101.
0F]yy	2BB-	2d]	1r
.	2C	4c	.
.	.	4B-	.
.	1D	1A	[1d
=102	=102	=102	=102
!LO:N:vis=1.	!	!	!
[y0G	2r	1G	1d]
.	2.G	.	.
.	.	2r	[1e
.	4F	.	.
.	[2E	[2g	.
=103-	=103.	=103.	=103.
0G_yy	4E]	4g]	2e]
.	4D	4f	.
.	2C	2e	2f
.	2BB-	2d	[1g
.	[2C	2c	.
=104-	=104.	=104.	=104.
0G]yy	2C]	1d	2g]
.	2BBni	.	2e
.	1C	1c	1e
=105-	=105	=105	=105
!LO:N:vis=1.	!	!	!
0r	2r	2d	2f
.	2.c	2c	1g
.	.	2e	.
.	4B-	.	.
.	2A	2f	2a
=106-	=106.	=106.	=106.
0ryy	1G	2g	2.b-
.	.	2e	.
.	.	.	4g
.	2F	2f	2a
.	2G	4e	[2g
.	.	4d	.
=107-	=107.	=107.	=107.
0ryy	2E	2c	2g]
.	2C	2e	1cc
.	1G	1d	.
.	.	.	2bni
=108	=108	=108	=108
0C	2r	1c	[1cc
.	2.c	.	.
.	.	2r	3cc]
.	4d	.	.
.	.	.	3b-
.	[2e-	[2g	.
.	.	.	3a
=109-	=109.	=109.	=109.
0C	4e-]	2g]	1g
.	4d	.	.
.	1c	2e	.
.	.	4f	1r
.	.	4e	.
.	2e-i	4d	.
.	.	4c	.
=110-	=110.	=110.	=110.
0G	2d	2B-	1.g
.	2c	2A	.
.	1d	1B-	.
.	.	.	2f
=111-	=111	=111	=111
0r	2c	2c	2e
.	1c	2A	4d
.	.	.	4c
.	.	1G	1d
.	2Bni	.	.
=112-	=112.	=112.	=112.
0C	1c	1g	1e
.	1g	2e	1c
.	.	2f	.
=113-	=113.	=113.	=113.
0C	2e	1g	1g
.	2f	.	.
.	1g	1c	2e
.	.	.	2f
=114	=114	=114	=114
0C	1c	1r	1g
.	2r	1e-	1c
.	2c	.	.
=115-	=115.	=115.	=115.
!LO:N:vis=1	!	!	!
[y0D	2A	2d	2.f
.	2B-	2.d	.
.	.	.	4g
.	2A	.	4a
.	.	4c	4b-
.	[2d	2A	[2a
=116-	=116.	=116.	=116.
0D]yy	4d]	2r	4a]
.	4c	.	4g
.	2B-	1.d	2.g
.	1A	.	.
.	.	.	4f#i
.	.	.	4f#i
.	.	.	4e
=117-	=117	=117	=117
0E-	2r	2.B-	1g
.	1.G	.	.
.	.	4G	.
.	.	2B-	2r
.	.	2c	2G
=118-	=118.	=118.	=118.
!LO:N:vis=1	!	!	!
[y0F	2F	1d	2.A
.	2D	.	.
.	.	.	4B-
.	2C	2r	2c
.	[2BB-	[2f	[2d
=119-	=119.	=119.	=119.
0F]yy	2BB-]	2f]	2d]
.	2C	2e	4c
.	.	.	4B-
.	1D	2.d	1A
.	.	4c	.
=120	=120	=120	=120
[0Gl	1r	2B-	0G
.	.	1e-i	.
.	1G	.	.
.	.	2d	.
=121-	=121.	=121.	=121.
0G]	0Gl	0dl	0gl
*rscale:1	*	*	*
==	==	==	==
*-	*-	*-	*-
!!!RDF**kern: l=long note in original notation
!!!RDF**kern: i=editorial accidental
!!!ENC:	Will Watson
!!!END:	2014/02/22/
!!!EED:	Jesse Rodin
!!!EEV:	2014/03/09/
!!!ONB:	Translated from MusicXML and edited on 2014/03/09/ by Craig Sapp
!!muse2ps: T^@{OPR}^u^@{ONM}{. }@{OTL}^C^@{COM}^i2I150v85,85,85,150Q16
